src/epub/images/titlepage.svg

<?xml version="1.0" encoding="utf-8"?>
<svg xmlns="http://www.w3.org/2000/svg" xmlns:svg="http://www.w3.org/2000/svg" version="1.1" viewBox="0 0 1400 340">
	<title>The titlepage for the Standard Ebooks edition of Moonfleet, by John Meade Falkner</title>
	<g>
		<path d="m 449.44517,130 17.59064,0 -6.92397,-77.192984 -18.71345,0 -17.12281,44.538013 -17.12281,-44.538013 -18.71345,0 L 381.51535,130 l 17.59064,0 3.64912,-45.754387 0.46784,0 15.81286,45.286547 10.47954,0 15.81286,-45.286547 0.46784,0 L 449.44517,130 Z"/>
		<path d="m 475.62061,91.356724 c 0,22.549706 16.09357,40.046786 38.92398,40.046786 22.17544,0 38.83041,-17.49708 38.83041,-40.046786 0,-22.549708 -17.40351,-39.953217 -38.83041,-39.953217 -21.23977,0 -38.92398,17.403509 -38.92398,39.953217 z m 18.99415,0 c 0,-11.508772 6.36258,-23.017544 19.92983,-23.017544 13.66082,0 19.83626,11.508772 19.83626,23.017544 0,11.508776 -5.80117,23.017546 -19.83626,23.017546 -14.40936,0 -19.92983,-11.50877 -19.92983,-23.017546 z"/>
		<path d="m 562.67471,91.356724 c 0,22.549706 16.09357,40.046786 38.92398,40.046786 22.17544,0 38.83041,-17.49708 38.83041,-40.046786 0,-22.549708 -17.40351,-39.953217 -38.83041,-39.953217 -21.23977,0 -38.92398,17.403509 -38.92398,39.953217 z m 18.99415,0 c 0,-11.508772 6.36258,-23.017544 19.92983,-23.017544 13.66082,0 19.83626,11.508772 19.83626,23.017544 0,11.508776 -5.80117,23.017546 -19.83626,23.017546 -14.40936,0 -19.92983,-11.50877 -19.92983,-23.017546 z"/>
		<path d="m 670.78142,82.093566 0.18713,0 L 701.65861,130 l 17.59065,0 0,-77.192984 -17.59065,0 0,47.906434 -0.18713,0 -30.69006,-47.906434 -17.59064,0 0,77.192984 17.59064,0 0,-47.906434 z"/>
		<path d="m 780.125,52.807016 -44.63158,0 0,77.192984 17.59064,0 0,-30.970761 24.98246,0 0,-15.438597 -24.98246,0 0,-15.345029 27.04094,0 0,-15.438597 z"/>
		<path d="m 811.08113,52.807016 -17.59064,0 0,77.192984 44.16374,0 0,-15.4386 -26.5731,0 0,-61.754384 z"/>
		<path d="m 895.46856,52.807016 -44.16374,0 0,77.192984 44.16374,0 0,-15.4386 -26.5731,0 0,-15.532161 25.4503,0 0,-15.438597 -25.4503,0 0,-15.345029 26.5731,0 0,-15.438597 z"/>
		<path d="m 954.7449,52.807016 -44.16374,0 0,77.192984 44.16374,0 0,-15.4386 -26.5731,0 0,-15.532161 25.45029,0 0,-15.438597 -25.45029,0 0,-15.345029 26.5731,0 0,-15.438597 z"/>
		<path d="m 964.99197,68.245613 18.33918,0 0,61.754387 17.59065,0 0,-61.754387 18.3392,0 0,-15.438597 -54.26903,0 0,15.438597 z"/>
	</g>
	<g>
		<path d="m 269.27742,232.10526 -13.19299,0 0,38.17544 c 0,5.82456 -2.87719,8.14035 -6.66666,8.14035 -3.36842,0 -7.50877,-3.92982 -7.50877,-3.92982 l -4.21053,11.01754 c 0,0 5.26316,5.54386 13.54386,5.54386 11.57895,0 18.03509,-6.03509 18.03509,-17.40351 l 0,-41.54386 z"/>
		<path d="m 279.38268,261.01754 c 0,16.91228 12.07018,30.03509 29.19298,30.03509 16.63158,0 29.12281,-13.12281 29.12281,-30.03509 0,-16.91228 -13.05263,-29.96491 -29.12281,-29.96491 -15.92982,0 -29.19298,13.05263 -29.19298,29.96491 z m 14.24561,0 c 0,-8.63157 4.77193,-17.26315 14.94737,-17.26315 10.24562,0 14.87719,8.63158 14.87719,17.26315 0,8.63158 -4.35087,17.26316 -14.87719,17.26316 -10.80702,0 -14.94737,-8.63158 -14.94737,-17.26316 z"/>
		<path d="m 361.71272,266.77193 18.66667,0 0,23.22807 13.19298,0 0,-57.89474 -13.19298,0 0,23.08772 -18.66667,0 0,-23.08772 -13.19298,0 0,57.89474 13.19298,0 0,-23.22807 z"/>
		<path d="m 420.16667,254.07018 0.14035,0 23.01754,35.92982 13.19298,0 0,-57.89474 -13.19298,0 0,35.92983 -0.14035,0 -23.01754,-35.92983 -13.19298,0 0,57.89474 13.19298,0 0,-35.92982 z"/>
		<path d="m 541.99891,290 13.19298,0 -5.19298,-57.89474 -14.03509,0 -12.84211,33.40351 -12.8421,-33.40351 -14.03509,0 -5.19298,57.89474 13.19298,0 2.73684,-34.31579 0.35088,0 11.85965,33.96491 7.85965,0 11.85965,-33.96491 0.35088,0 L 541.99891,290 Z"/>
		<path d="m 598.59979,232.10526 -33.12281,0 0,57.89474 33.12281,0 0,-11.57895 -19.92983,0 0,-11.64912 19.08772,0 0,-11.57895 -19.08772,0 0,-11.50877 19.92983,0 0,-11.57895 z"/>
		<path d="m 640.9989,232.10526 -12.21053,0 L 605.41995,290 l 14.17544,0 4.2807,-11.57895 22.03509,0 4.2807,11.57895 14.17544,0 -23.36842,-57.89474 z m 0.42105,34.73685 -13.05263,0 6.45614,-16.84211 0.14035,0 6.45614,16.84211 z"/>
		<path d="m 671.55703,232.10526 0,57.89474 16.77193,0 c 15.92982,0 29.19298,-12.07018 29.19298,-28.98246 0,-16.8421 -13.33333,-28.91228 -29.19298,-28.91228 l -16.77193,0 z m 13.19298,46.10527 0,-34.31579 2.03509,0 c 9.82456,0 16.49123,7.50877 16.49123,17.19298 -0.0702,9.68421 -6.73685,17.12281 -16.49123,17.12281 l -2.03509,0 z"/>
		<path d="m 761.48904,232.10526 -33.12281,0 0,57.89474 33.12281,0 0,-11.57895 -19.92982,0 0,-11.64912 19.08771,0 0,-11.57895 -19.08771,0 0,-11.50877 19.92982,0 0,-11.57895 z"/>
		<path d="m 831.73573,232.10526 -33.47368,0 0,57.89474 13.19298,0 0,-23.22807 18.73684,0 0,-11.57895 -18.73684,0 0,-11.50877 20.2807,0 0,-11.57895 z"/>
		<path d="m 869.94626,232.10526 -12.21053,0 L 834.36731,290 l 14.17544,0 4.2807,-11.57895 22.03509,0 4.2807,11.57895 14.17544,0 -23.36842,-57.89474 z m 0.42105,34.73685 -13.05263,0 6.45614,-16.84211 0.14035,0 6.45614,16.84211 z"/>
		<path d="m 913.69734,232.10526 -13.19298,0 0,57.89474 33.1228,0 0,-11.57895 -19.92982,0 0,-46.31579 z"/>
		<path d="m 997.81689,290 -26.94737,-30.45614 23.29825,-27.4386 -16,0 -19.85965,23.64913 0,-23.64913 -13.19299,0 0,57.89474 13.19299,0 0,-24.5614 21.33333,24.5614 18.17544,0 z"/>
		<path d="m 1018.5438,254.07018 0.1404,0 23.0175,35.92982 13.193,0 0,-57.89474 -13.193,0 0,35.92983 -0.1403,0 -23.0176,-35.92983 -13.1929,0 0,57.89474 13.1929,0 0,-35.92982 z"/>
		<path d="m 1101.4506,232.10526 -33.1228,0 0,57.89474 33.1228,0 0,-11.57895 -19.9298,0 0,-11.64912 19.0877,0 0,-11.57895 -19.0877,0 0,-11.50877 19.9298,0 0,-11.57895 z"/>
		<path d="m 1114.0351,232.10526 0,57.89474 13.193,0 0,-22.87719 17.6842,22.87719 16.7719,0 -19.9298,-23.92982 c 7.0877,-2.24562 11.8597,-8.07018 11.8597,-16.77193 0,-11.36842 -8.1404,-17.19299 -18.8772,-17.19299 l -20.7018,0 z m 13.193,25.68421 0,-15.15789 1.5439,0 c 4.9824,0 10.9473,0.35088 10.9473,7.57895 0,7.22807 -5.9649,7.57894 -10.9473,7.57894 l -1.5439,0 z"/>
	</g>
</svg>

<?xml version="1.0" encoding="utf-8"?>
<svg xmlns="http://www.w3.org/2000/svg" xmlns:svg="http://www.w3.org/2000/svg" version="1.1" viewBox="0 0 1400 340">
	<title>The titlepage for the Standard Ebooks edition of Moonfleet, by John Meade Falkner</title>
	<g aria-label="MOONFLEET">
		<path d="m 449.44517,130 h 17.59064 L 460.11184,52.807016 H 441.39839 L 424.27558,97.345029 407.15277,52.807016 H 388.43932 L 381.51535,130 h 17.59064 l 3.64912,-45.754387 h 0.46784 l 15.81286,45.286547 h 10.47954 l 15.81286,-45.286547 h 0.46784 z"/>
		<path d="m 475.62061,91.356724 c 0,22.549706 16.09357,40.046786 38.92398,40.046786 22.17544,0 38.83041,-17.49708 38.83041,-40.046786 0,-22.549708 -17.40351,-39.953217 -38.83041,-39.953217 -21.23977,0 -38.92398,17.403509 -38.92398,39.953217 z m 18.99415,0 c 0,-11.508772 6.36258,-23.017544 19.92983,-23.017544 13.66082,0 19.83626,11.508772 19.83626,23.017544 0,11.508776 -5.80117,23.017546 -19.83626,23.017546 -14.40936,0 -19.92983,-11.50877 -19.92983,-23.017546 z"/>
		<path d="m 562.67471,91.356724 c 0,22.549706 16.09357,40.046786 38.92398,40.046786 22.17544,0 38.83041,-17.49708 38.83041,-40.046786 0,-22.549708 -17.40351,-39.953217 -38.83041,-39.953217 -21.23977,0 -38.92398,17.403509 -38.92398,39.953217 z m 18.99415,0 c 0,-11.508772 6.36258,-23.017544 19.92983,-23.017544 13.66082,0 19.83626,11.508772 19.83626,23.017544 0,11.508776 -5.80117,23.017546 -19.83626,23.017546 -14.40936,0 -19.92983,-11.50877 -19.92983,-23.017546 z"/>
		<path d="m 670.78142,82.093566 h 0.18713 L 701.65861,130 h 17.59065 V 52.807016 h -17.59065 v 47.906434 h -0.18713 L 670.78142,52.807016 H 653.19078 V 130 h 17.59064 z"/>
		<path d="M 780.125,52.807016 H 735.49342 V 130 h 17.59064 V 99.029239 h 24.98246 V 83.590642 H 753.08406 V 68.245613 H 780.125 Z"/>
		<path d="M 811.08113,52.807016 H 793.49049 V 130 h 44.16374 v -15.4386 h -26.5731 z"/>
		<path d="M 895.46856,52.807016 H 851.30482 V 130 h 44.16374 v -15.4386 h -26.5731 V 99.029239 h 25.4503 V 83.590642 h -25.4503 V 68.245613 h 26.5731 z"/>
		<path d="M 954.7449,52.807016 H 910.58116 V 130 H 954.7449 V 114.5614 H 928.1718 V 99.029239 h 25.45029 V 83.590642 H 928.1718 V 68.245613 h 26.5731 z"/>
		<path d="m 964.99197,68.245613 h 18.33918 V 130 h 17.59065 V 68.245613 h 18.3392 V 52.807016 h -54.26903 z"/>
	</g>
	<g aria-label="JOHN MEADE FALKNER">
		<path d="m 269.27742,232.10526 h -13.19299 v 38.17544 c 0,5.82456 -2.87719,8.14035 -6.66666,8.14035 -3.36842,0 -7.50877,-3.92982 -7.50877,-3.92982 l -4.21053,11.01754 c 0,0 5.26316,5.54386 13.54386,5.54386 11.57895,0 18.03509,-6.03509 18.03509,-17.40351 z"/>
		<path d="m 279.38268,261.01754 c 0,16.91228 12.07018,30.03509 29.19298,30.03509 16.63158,0 29.12281,-13.12281 29.12281,-30.03509 0,-16.91228 -13.05263,-29.96491 -29.12281,-29.96491 -15.92982,0 -29.19298,13.05263 -29.19298,29.96491 z m 14.24561,0 c 0,-8.63157 4.77193,-17.26315 14.94737,-17.26315 10.24562,0 14.87719,8.63158 14.87719,17.26315 0,8.63158 -4.35087,17.26316 -14.87719,17.26316 -10.80702,0 -14.94737,-8.63158 -14.94737,-17.26316 z"/>
		<path d="m 361.71272,266.77193 h 18.66667 V 290 h 13.19298 v -57.89474 h -13.19298 v 23.08772 H 361.71272 V 232.10526 H 348.51974 V 290 h 13.19298 z"/>
		<path d="m 420.16667,254.07018 h 0.14035 L 443.32456,290 h 13.19298 v -57.89474 h -13.19298 v 35.92983 h -0.14035 L 420.16667,232.10526 H 406.97369 V 290 h 13.19298 z"/>
		<path d="m 541.99891,290 h 13.19298 l -5.19298,-57.89474 h -14.03509 l -12.84211,33.40351 -12.8421,-33.40351 H 496.24452 L 491.05154,290 h 13.19298 l 2.73684,-34.31579 h 0.35088 l 11.85965,33.96491 h 7.85965 l 11.85965,-33.96491 h 0.35088 z"/>
		<path d="M 598.59979,232.10526 H 565.47698 V 290 h 33.12281 v -11.57895 h -19.92983 v -11.64912 h 19.08772 v -11.57895 h -19.08772 v -11.50877 h 19.92983 z"/>
		<path d="M 640.9989,232.10526 H 628.78837 L 605.41995,290 h 14.17544 l 4.2807,-11.57895 h 22.03509 L 650.19188,290 h 14.17544 z m 0.42105,34.73685 H 628.36732 L 634.82346,250 h 0.14035 z"/>
		<path d="M 671.55703,232.10526 V 290 h 16.77193 c 15.92982,0 29.19298,-12.07018 29.19298,-28.98246 0,-16.8421 -13.33333,-28.91228 -29.19298,-28.91228 z m 13.19298,46.10527 v -34.31579 h 2.03509 c 9.82456,0 16.49123,7.50877 16.49123,17.19298 -0.0702,9.68421 -6.73685,17.12281 -16.49123,17.12281 z"/>
		<path d="M 761.48904,232.10526 H 728.36623 V 290 h 33.12281 v -11.57895 h -19.92982 v -11.64912 h 19.08771 v -11.57895 h -19.08771 v -11.50877 h 19.92982 z"/>
		<path d="M 831.73573,232.10526 H 798.26205 V 290 h 13.19298 v -23.22807 h 18.73684 v -11.57895 h -18.73684 v -11.50877 h 20.2807 z"/>
		<path d="M 869.94626,232.10526 H 857.73573 L 834.36731,290 h 14.17544 l 4.2807,-11.57895 h 22.03509 L 879.13924,290 h 14.17544 z m 0.42105,34.73685 H 857.31468 L 863.77082,250 h 0.14035 z"/>
		<path d="M 913.69734,232.10526 H 900.50436 V 290 h 33.1228 v -11.57895 h -19.92982 z"/>
		<path d="m 997.81689,290 -26.94737,-30.45614 23.29825,-27.4386 h -16 l -19.85965,23.64913 V 232.10526 H 945.11513 V 290 h 13.19299 V 265.4386 L 979.64145,290 Z"/>
		<path d="m 1018.5438,254.07018 h 0.1404 L 1041.7017,290 h 13.193 v -57.89474 h -13.193 v 35.92983 h -0.1403 l -23.0176,-35.92983 h -13.1929 V 290 h 13.1929 z"/>
		<path d="m 1101.4506,232.10526 h -33.1228 V 290 h 33.1228 v -11.57895 h -19.9298 v -11.64912 h 19.0877 v -11.57895 h -19.0877 v -11.50877 h 19.9298 z"/>
		<path d="M 1114.0351,232.10526 V 290 h 13.193 V 267.12281 L 1144.9123,290 h 16.7719 l -19.9298,-23.92982 c 7.0877,-2.24562 11.8597,-8.07018 11.8597,-16.77193 0,-11.36842 -8.1404,-17.19299 -18.8772,-17.19299 z m 13.193,25.68421 v -15.15789 h 1.5439 c 4.9824,0 10.9473,0.35088 10.9473,7.57895 0,7.22807 -5.9649,7.57894 -10.9473,7.57894 z"/>
	</g>
</svg>
